dist/icons/fork and spoon.svg

<svg width="25" height="33" viewBox="0 0 25 33" fill="none" xmlns="http://www.w3.org/2000/svg">
<path d="M5 0.00518799H7V11.7417H5V0.00518799Z" fill="white"/>
<path d="M10 10.5681C10 11.8132 9.57857 13.0073 8.82843 13.8877C8.07828 14.7681 7.06087 15.2627 6 15.2627C4.93913 15.2627 3.92172 14.7681 3.17157 13.8877C2.42143 13.0073 2 11.8132 2 10.5681V0.00518799H0V10.5681C0.00143584 12.231 0.504246 13.8397 1.41939 15.1092C2.33452 16.3788 3.60294 17.2273 5 17.5044V32.8676H7V17.5044C8.39706 17.2273 9.66548 16.3788 10.5806 15.1092C11.4958 13.8397 11.9986 12.231 12 10.5681V0.00518799H10V10.5681Z" fill="white"/>
<path d="M18 0.00511269H17V32.8676H19V21.131H22C22.5304 21.131 23.0391 20.8837 23.4142 20.4435C23.7893 20.0033 24 19.4062 24 18.7837V7.04707C24.0309 6.11258 23.8969 5.18067 23.6063 4.30987C23.3157 3.43908 22.8749 2.6482 22.3114 1.98692C21.748 1.32563 21.0741 0.808217 20.3322 0.467171C19.5902 0.126124 18.7962 -0.0311879 18 0.00511269V0.00511269ZM22 18.7837H19V2.45806C21.88 3.11531 22 6.61282 22 7.04707V18.7837Z" fill="white"/>
</svg>

<svg width="25" height="33" fill="none" xmlns="http://www.w3.org/2000/svg"><path d="M5 .005h2v11.737H5V.005z" fill="#fff"/><path d="M10 10.568c0 1.245-.421 2.44-1.172 3.32-.75.88-1.767 1.375-2.828 1.375-1.06 0-2.078-.495-2.828-1.375S2 11.813 2 10.568V.005H0v10.563c.001 1.663.504 3.272 1.42 4.541.915 1.27 2.183 2.118 3.58 2.395v15.364h2V17.504c1.397-.277 2.665-1.125 3.58-2.395.916-1.27 1.419-2.878 1.42-4.54V.004h-2v10.563zM18 .005h-1v32.863h2V21.13h3c.53 0 1.04-.247 1.414-.688.375-.44.586-1.037.586-1.66V7.048a7.85 7.85 0 00-.394-2.737 6.989 6.989 0 00-1.295-2.323 5.79 5.79 0 00-1.979-1.52A5.02 5.02 0 0018 .005zm4 18.779h-3V2.458c2.88.657 3 4.155 3 4.59v11.736z" fill="#fff"/></svg>
